rospo-icon-theme-classic-common/symbolic/status/semi-starred-symbolic.svg

<svg height="16" width="16" xmlns="http://www.w3.org/2000/svg"><path d="m8 .38-2.12 5.5-5.88.31 4.56 3.72-1.5 5.68 4.94-3.18v-.01l4.94 3.21-1.51-5.7 4.57-3.71-5.88-.32-2.12-5.49v-.02zm0 2.79 1.42 3.68 3.94.21-3.06 2.49 1.01 3.81-3.31-2.15z" fill="#5294e2"/></svg>

<svg xmlns="http://www.w3.org/2000/svg" width="16" height="16" version="1.1">
 <path style="fill:#5294e2" class="warning" d="M 8,0.38 5.88,5.88 0,6.19 4.56,9.91 3.06,15.59 8,12.41 V 12.4 L 12.94,15.61 11.43,9.91 16,6.2 10.12,5.88 8,0.39 V 0.37 Z M 8,3.17 9.42,6.85 13.36,7.06 10.3,9.55 11.31,13.36 8,11.21 Z"/>
</svg>
